packages/kronos-fna-icons/src/help.svg

<svg viewBox="0 0 20 20" xmlns="http://www.w3.org/2000/svg">
    <title>help</title>
    <path d="M10 .4A9.6 9.6 0 0 0 .4 10a9.6 9.6 0 1 0 19.2-.001C19.6 4.698 15.301.4 10 .4zm-.151 15.199h-.051c-.782-.023-1.334-.6-1.311-1.371.022-.758.587-1.309 1.343-1.309l.046.002c.804.023 1.35.594 1.327 1.387-.023.76-.578 1.291-1.354 1.291zm3.291-6.531c-.184.26-.588.586-1.098.983l-.562.387c-.308.24-.494.467-.563.688-.056.174-.082.221-.087.576v.09H8.685l.006-.182c.027-.744.045-1.184.354-1.547.485-.568 1.555-1.258 1.6-1.287a1.65 1.65 0 0 0 .379-.387c.225-.311.324-.555.324-.793 0-.334-.098-.643-.293-.916-.188-.266-.545-.398-1.061-.398-.512 0-.863.162-1.072.496-.216.341-.325.7-.325 1.067v.092H6.386l.004-.096c.057-1.353.541-2.328 1.435-2.897.563-.361 1.264-.544 2.081-.544 1.068 0 1.972.26 2.682.772.721.519 1.086 1.297 1.086 2.311-.001.567-.18 1.1-.534 1.585z" />
</svg>

<?xml version="1.0" encoding="UTF-8"?>
<svg width="20px" height="20px" viewBox="0 0 20 20" version="1.1" xmlns="http://www.w3.org/2000/svg" xmlns:xlink="http://www.w3.org/1999/xlink">
    <!-- Generator: Sketch 50.2 (55047) - http://www.bohemiancoding.com/sketch -->
    <title>help</title>
    <desc>Created with Sketch.</desc>
    <defs></defs>
    <g id="help" stroke="none" stroke-width="1" fill="none" fill-rule="evenodd">
        <g id="help-with-circle" fill="#000000" fill-rule="nonzero">
            <path d="M10,0.4 C4.698,0.4 0.4,4.698 0.4,10 C0.4,15.302 4.698,19.6 10,19.6 C15.301,19.6 19.6,15.302 19.6,9.999 C19.6,4.698 15.301,0.4 10,0.4 Z M9.849,15.599 L9.798,15.599 C9.016,15.576 8.464,14.999 8.487,14.228 C8.509,13.47 9.074,12.919 9.83,12.919 L9.876,12.921 C10.68,12.944 11.226,13.515 11.203,14.308 C11.18,15.068 10.625,15.599 9.849,15.599 Z M13.14,9.068 C12.956,9.328 12.552,9.654 12.042,10.051 L11.48,10.438 C11.172,10.678 10.986,10.905 10.917,11.126 C10.861,11.3 10.835,11.347 10.83,11.702 L10.83,11.792 L8.685,11.792 L8.691,11.61 C8.718,10.866 8.736,10.426 9.045,10.063 C9.53,9.495 10.6,8.805 10.645,8.776 C10.799,8.661 10.928,8.53 11.024,8.389 C11.249,8.078 11.348,7.834 11.348,7.596 C11.348,7.262 11.25,6.953 11.055,6.68 C10.867,6.414 10.51,6.282 9.994,6.282 C9.482,6.282 9.131,6.444 8.922,6.778 C8.706,7.119 8.597,7.478 8.597,7.845 L8.597,7.937 L6.386,7.937 L6.39,7.841 C6.447,6.488 6.931,5.513 7.825,4.944 C8.388,4.583 9.089,4.4 9.906,4.4 C10.974,4.4 11.878,4.66 12.588,5.172 C13.309,5.691 13.674,6.469 13.674,7.483 C13.673,8.05 13.494,8.583 13.14,9.068 Z" id="Shape"></path>
        </g>
    </g>
</svg>
